X: 25215
T: Malin Head
R: reel
M: 4/4
K: Gmajor
DG (3GGG FGAB|cded cBAF|DF (3FFF DFAB|(3cBA AG GFFE|
DG (3GGG FGAB|cded cBAF|DF (3FFF DFAc|1 BcAF G2 GF:|2 BcAF G4||
dggf g2 fg|aA (3AAA ABcA|ABcg f2 ef|eddc cBBA|
dggf g2 fg|aA (3AAA ABcA|aAAg AAfA|eddc cBBA:|

